!!!SOCIAL_FUNCTION:	songs of personal narratives concerning war
!!!PDT:	1918

Specific Region: Dakotas, Minnesota, Montana, Nebraska
!!!REG: Dakotas and Montana
!!!LING_GROUP: Siouan
!!!LANG: Tone
!!!OTL@ENG: It Is I, Myself
!!!ONM: No. 170
**kern
*Imale
*clefF4
*k[b-e-a-d-]
*M3/4
*MM80
2c
8c
8B
=2
16c
[8.A-
4A-]
4F
=3
2.A-
=4||
*M2/4
8.c
16c
4B
=5
8.c
16c
4B
=6||
*M3/4
16c
[8.A-
4A-]
4F
=7||
*M2/4
4F
8F
8E
=8
8.F
16F
4E
=9||
*M3/4
[4E
8E]
8C
4E
=10||
*M2/4
2F
=11
16G
8.F
8F
8E
=12
8F
[8E
4E]
=13
4.C
8C
=14
2C
=15
[2C
=16
2C]
=17
*MM56
8.F
16A-
16A-
8.A-
=18
8.c
16B
8.c
16B
=19
12c
12A-
12A-
4F
=20
4F
8.F
16E
=21
8.F
16E
8.E
16E
=22
4C
4E
=23
2F
=24||
*M3/4
16G
8.F
8F
8E
16F
8.E
=25
8.C
16C
2C
=26
4C
2r
==
*-
!!!CNT: Native American -- Sioux
!!!MRD: 1911/07//-1914///
!!!OCL: Frances Densmore
!!!YOR1: Teton Sioux Music, Bulletin 61,
!!!YOR2: Bureau of American Ethnology, Smithsonian Institution
!!!PPR: Government Printing Office
!!!PPP: Washington, D.C.
!!!PDT: 1918///
!!!ENC: Craig Stuart Sapp
!!!END: 2002/03/25/
!!!EEV: 2002/03/31/
!!!AGN: War Song/Song of Personal Narrative Concerning War
!!!MPN@@SIO: Shung'ka-lu'zahang
!!!MPN@ENG: Swift Dog
!!!TXO: Teton Sioux
!!!MLC: Standing Rock Reservation, South Dakota, United States of America
!!!ARL: 45.9/-100.7#
!!!catalog: Catalogue No. 583
!!!PPG: 403
!!!EFL: 175/245
!!!VTS: 1249438015
